svg/emoji/happy_fill.svg

<?xml version="1.0" encoding="UTF-8"?>
<svg width="24px" height="24px" viewBox="0 0 24 24" version="1.1" xmlns="http://www.w3.org/2000/svg" xmlns:xlink="http://www.w3.org/1999/xlink">
    <title>happy_fill</title>
    <g id="Icon" stroke="none" stroke-width="1" fill="none" fill-rule="evenodd">
        <g id="Emoji" transform="translate(-240.000000, -48.000000)">
            <g id="happy_fill" transform="translate(240.000000, 48.000000)">
                <path d="M24,0 L24,24 L0,24 L0,0 L24,0 Z M12.5935,23.2578 L12.5819,23.2595 L12.5109,23.295 L12.4919,23.2987 L12.4767,23.295 L12.4057,23.2595 C12.3958,23.2564 12.387,23.259 12.3821,23.2649 L12.378,23.2758 L12.3609,23.7031 L12.3659,23.7235 L12.3769,23.7357 L12.4805,23.8097 L12.4953,23.8136 L12.5071,23.8097 L12.6107,23.7357 L12.6233,23.7197 L12.6267,23.7031 L12.6096,23.2758 C12.6076,23.2657 12.601,23.2593 12.5935,23.2578 Z M12.8584,23.1453 L12.8445,23.1473 L12.6598,23.2397 L12.6499,23.2499 L12.6472,23.2611 L12.6651,23.6906 L12.6699,23.7034 L12.6784,23.7105 L12.8793,23.8032 C12.8914,23.8069 12.9022,23.803 12.9078,23.7952 L12.9118,23.7812 L12.8777,23.1665 C12.8753,23.1546 12.8674,23.147 12.8584,23.1453 Z M12.143,23.1473 C12.1332,23.1424 12.1222,23.1453 12.1156,23.1526 L12.1099,23.1665 L12.0758,23.7812 C12.0751,23.7927 12.0828,23.8019 12.0926,23.8046 L12.1083,23.8032 L12.3092,23.7105 L12.3186,23.7024 L12.3225,23.6906 L12.3404,23.2611 L12.3372,23.2485 L12.3278,23.2397 L12.143,23.1473 Z" id="MingCute" fill-rule="nonzero"></path>
                <path d="M12,2 C17.5228,2 22,6.47715 22,12 C22,17.5228 17.5228,22 12,22 C6.47715,22 2,17.5228 2,12 C2,6.47715 6.47715,2 12,2 Z M13.9841,14.2503 C13.4546,14.7176 12.7615,15.0000002 12,15.0000002 C11.2385,15.0000002 10.5454,14.7176 10.0159,14.2503 C9.60185,13.8848 8.96991,13.9242 8.60445,14.3383 C8.23898,14.7523 8.27838,15.3843 8.69245,15.7497 C9.57326,16.5272 10.7326,17.0000002 12,17.0000002 C13.2674,17.0000002 14.4268,16.5272 15.3076,15.7497 C15.7216,15.3843 15.761,14.7523 15.3956,14.3383 C15.0301,13.9242 14.3982,13.8848 13.9841,14.2503 Z M8.5,8 C7.41336,8 6.54249,8.68042 6.10588,9.55214 C5.85855,10.0459 6.05836,10.6468 6.55217,10.8941 C7.01070786,11.1237357 7.56150592,10.9678617 7.83587812,10.5490585 L7.89412,10.4478 C8.05634,10.1239 8.30472,10 8.5,10 C8.67087,10 8.88239469,10.0948609 9.04128074,10.3355639 L9.10588,10.4478 C9.35321,10.9416 9.95402,11.1414 10.4478,10.8941 C10.9416,10.6468 11.1414,10.0459 10.8941,9.55214 C10.4575,8.68042 9.58664,8 8.5,8 Z M15.5,8 C14.4134,8 13.5425,8.68042 13.1059,9.55214 C12.8586,10.0459 13.0584,10.6468 13.5522,10.8941 C14.0107286,11.1237357 14.5615173,10.9678617 14.8358642,10.5490585 L14.8941,10.4478 C15.0563,10.1239 15.3047,10 15.5,10 C15.6708875,10 15.8824297,10.0948609 16.0413064,10.3355639 L16.1059,10.4478 C16.3532,10.9416 16.954,11.1414 17.4478,10.8941 C17.9416,10.6468 18.1414,10.0459 17.8941,9.55214 C17.4575,8.68042 16.5866,8 15.5,8 Z" id="形状" fill="#09244B"></path>
            </g>
        </g>
    </g>
</svg>

<svg xmlns="http://www.w3.org/2000/svg" width="24" height="24"><g fill="none" fill-rule="evenodd"><path d="M24 0v24H0V0h24ZM12.594 23.258l-.012.002-.071.035-.02.004-.014-.004-.071-.036c-.01-.003-.019 0-.024.006l-.004.01-.017.428.005.02.01.013.104.074.015.004.012-.004.104-.074.012-.016.004-.017-.017-.427c-.002-.01-.009-.017-.016-.018Zm.264-.113-.014.002-.184.093-.01.01-.003.011.018.43.005.012.008.008.201.092c.012.004.023 0 .029-.008l.004-.014-.034-.614c-.003-.012-.01-.02-.02-.022Zm-.715.002a.023.023 0 0 0-.027.006l-.006.014-.034.614c0 .012.007.02.017.024l.015-.002.201-.093.01-.008.003-.011.018-.43-.003-.012-.01-.01-.184-.092Z"/><path fill="#09244B" d="M12 2c5.523 0 10 4.477 10 10s-4.477 10-10 10S2 17.523 2 12 6.477 2 12 2Zm1.984 12.25c-.53.468-1.223.75-1.984.75a2.985 2.985 0 0 1-1.984-.75 1 1 0 1 0-1.324 1.5C9.573 16.527 10.732 17 12 17a4.984 4.984 0 0 0 3.308-1.25 1 1 0 0 0-1.324-1.5ZM8.5 8c-1.087 0-1.958.68-2.394 1.552a1 1 0 0 0 1.73.997l.058-.101c.162-.324.41-.448.606-.448.17 0 .382.095.541.336l.065.112a1 1 0 0 0 1.788-.896C10.457 8.68 9.587 8 8.5 8Zm7 0c-1.087 0-1.957.68-2.394 1.552a1 1 0 0 0 1.73.997l.058-.101c.162-.324.41-.448.606-.448.17 0 .382.095.541.336l.065.112a1 1 0 1 0 1.788-.896C17.458 8.68 16.587 8 15.5 8Z"/></g></svg>
